Newaita/actions/32/im-invisible-user.svg

<svg height="32" viewBox="0 0 32 32" width="32" xmlns="http://www.w3.org/2000/svg"><g fill="#424242"><path d="m15.875 2.894531c-3.664062 0-6.613281 2.953125-6.613281 6.617188 0 3.664062 2.949219 6.613281 6.613281 6.613281 3.667969 0 6.617188-2.949219 6.617188-6.613281 0-3.664063-2.949219-6.617188-6.617188-6.617188zm0 2.648438c2.199219 0 3.96875 1.769531 3.96875 3.96875s-1.769531 3.96875-3.96875 3.96875-3.96875-1.769531-3.96875-3.96875 1.769531-3.96875 3.96875-3.96875zm0 0" fill-opacity=".392157"/><path d="m20.503906 16.792969c-.164062 0-.332031.035156-.484375.09375-3.085937 1.234375-5.203125 1.234375-8.285156 0-.28125-.113281-.597656-.121094-.886719-.03125-.882812.28125-2.480468.621093-3.945312 1.40625-1.46875.789062-2.925782 2.300781-2.925782 4.480469v1.984374h-.007812v1.984376c0 1.464843 1.179688 2.644531 2.644531 2.644531h12.570313l-2.976563-2.644531h-8.269531c-.730469 0-1.324219-.589844-1.324219-1.324219v-.660157h-.003906v-1.984374c0-1.128907.523437-1.617188 1.539063-2.160157.890624-.476562 2.046874-.78125 3.066406-1.085937 3.195312 1.175781 6.128906 1.175781 9.328125 0 1.003906.292968 2.152343.59375 3.039062 1.066406l1.78125-2c-.167969-.113281-.339843-.214844-.511719-.308594-1.464843-.789062-3.0625-1.125-3.957031-1.402344-.125-.039062-.257812-.058593-.390625-.058593zm0 0" fill-opacity=".392157"/><path d="m27.289062 19.449219c-.203124.007812-.390624.105469-.515624.265625l-4.542969 5.921875-3.195313-2.949219c-.277344-.257812-.710937-.242188-.96875.039062l-.929687 1.007813c-.257813.277344-.238281.710937.039062.96875l4.851563 4.476563c.296875.273437.765625.234374 1.007812-.085938l5.917969-7.707031c.230469-.300781.171875-.730469-.128906-.960938l-1.085938-.835937c-.128906-.097656-.289062-.148438-.449219-.140625zm0 0"/></g></svg>

<?xml version="1.0" encoding="UTF-8"?>
<svg xmlns="http://www.w3.org/2000/svg" xmlns:xlink="http://www.w3.org/1999/xlink" width="32px" height="32px" viewBox="0 0 32 32" version="1.1">
<g id="surface1">
<path style=" stroke:none;fill-rule:nonzero;fill:rgb(25.882354%,25.882354%,25.882354%);fill-opacity:0.392157;" d="M 15.875 2.894531 C 12.210938 2.894531 9.261719 5.847656 9.261719 9.511719 C 9.261719 13.175781 12.210938 16.125 15.875 16.125 C 19.542969 16.125 22.492188 13.175781 22.492188 9.511719 C 22.492188 5.847656 19.542969 2.894531 15.875 2.894531 Z M 15.875 5.542969 C 18.074219 5.542969 19.84375 7.3125 19.84375 9.511719 C 19.84375 11.710938 18.074219 13.480469 15.875 13.480469 C 13.675781 13.480469 11.90625 11.710938 11.90625 9.511719 C 11.90625 7.3125 13.675781 5.542969 15.875 5.542969 Z M 15.875 5.542969 "/>
<path style=" stroke:none;fill-rule:nonzero;fill:rgb(25.882354%,25.882354%,25.882354%);fill-opacity:0.392157;" d="M 20.503906 16.792969 C 20.339844 16.792969 20.171875 16.828125 20.019531 16.886719 C 16.933594 18.121094 14.816406 18.121094 11.734375 16.886719 C 11.453125 16.773438 11.136719 16.765625 10.847656 16.855469 C 9.964844 17.136719 8.367188 17.476562 6.902344 18.261719 C 5.433594 19.050781 3.976562 20.5625 3.976562 22.742188 L 3.976562 24.726562 L 3.96875 24.726562 L 3.96875 26.710938 C 3.96875 28.175781 5.148438 29.355469 6.613281 29.355469 L 19.183594 29.355469 L 16.207031 26.710938 L 7.9375 26.710938 C 7.207031 26.710938 6.613281 26.121094 6.613281 25.386719 L 6.613281 24.726562 L 6.609375 24.726562 L 6.609375 22.742188 C 6.609375 21.613281 7.132812 21.125 8.148438 20.582031 C 9.039062 20.105469 10.195312 19.800781 11.214844 19.496094 C 14.410156 20.671875 17.34375 20.671875 20.542969 19.496094 C 21.546875 19.789062 22.695312 20.089844 23.582031 20.5625 L 25.363281 18.5625 C 25.195312 18.449219 25.023438 18.347656 24.851562 18.253906 C 23.386719 17.464844 21.789062 17.128906 20.894531 16.851562 C 20.769531 16.8125 20.636719 16.792969 20.503906 16.792969 Z M 20.503906 16.792969 "/>
<path style=" stroke:none;fill-rule:nonzero;fill:rgb(25.882354%,25.882354%,25.882354%);fill-opacity:1;" d="M 27.289062 19.449219 C 27.085938 19.457031 26.898438 19.554688 26.773438 19.714844 L 22.230469 25.636719 L 19.035156 22.6875 C 18.757812 22.429688 18.324219 22.445312 18.066406 22.726562 L 17.136719 23.734375 C 16.878906 24.011719 16.898438 24.445312 17.175781 24.703125 L 22.027344 29.179688 C 22.324219 29.453125 22.792969 29.414062 23.035156 29.09375 L 28.953125 21.386719 C 29.183594 21.085938 29.125 20.65625 28.824219 20.425781 L 27.738281 19.589844 C 27.609375 19.492188 27.449219 19.441406 27.289062 19.449219 Z M 27.289062 19.449219 "/>
</g>
</svg>
